svg/fluentui-system-icons/ic_fluent_textbox_align_middle_rotate_90_24_filled.svg

<svg width="24" height="24" viewBox="0 0 24 24" fill="none" xmlns="http://www.w3.org/2000/svg">
<path d="M21 18.25C21 19.7688 19.7688 21 18.25 21H5.75C4.23122 21 3 19.7688 3 18.25V5.75C3 4.23122 4.23122 3 5.75 3H18.25C19.7688 3 21 4.23122 21 5.75V18.25ZM14 7L13.9932 6.86431C13.9435 6.37621 13.6297 6 13.25 6C12.8358 6 12.5 6.44772 12.5 7V17L12.5068 17.1357C12.5565 17.6238 12.8703 18 13.25 18C13.6642 18 14 17.5523 14 17V7ZM11 17V7L10.9932 6.86431C10.9435 6.37621 10.6297 6 10.25 6C9.83579 6 9.5 6.44772 9.5 7V17L9.50685 17.1357C9.55651 17.6238 9.8703 18 10.25 18C10.6642 18 11 17.5523 11 17Z" fill="#212121"/>
</svg>

<svg xmlns="http://www.w3.org/2000/svg" width="24" height="24"><path d="M21 18.25A2.75 2.75 0 0 1 18.25 21H5.75A2.75 2.75 0 0 1 3 18.25V5.75A2.75 2.75 0 0 1 5.75 3h12.5A2.75 2.75 0 0 1 21 5.75v12.5ZM14 7l-.007-.136C13.943 6.376 13.63 6 13.25 6c-.414 0-.75.448-.75 1v10l.007.136c.05.488.363.864.743.864.414 0 .75-.448.75-1V7Zm-3 10V7l-.007-.136C10.943 6.376 10.63 6 10.25 6c-.414 0-.75.448-.75 1v10l.007.136c.05.488.363.864.743.864.414 0 .75-.448.75-1Z"/></svg>
